src/assets/cards/4H.svg

<svg clip-rule="evenodd" fill-rule="evenodd" stroke-linejoin="round" stroke-miterlimit="2" viewBox="0 0 934 1300" xmlns="http://www.w3.org/2000/svg"><g fill="#d40000" fill-rule="nonzero"><path d="m75.92 193.621v-11.716h10.775v-19.318h-53.852v-13.636l58.268-87.91 9.521.038v87.872h16.47v13.636h-16.47l-.314 19.318h9.032v11.716zm10.775-100.404-36.993 55.734h36.993z"/><path d="m857.414 1106.39v11.72h-10.776v19.32h53.853v13.62l-58.268 87.91-9.521-.03v-87.88h-16.471v-13.62h16.471l.313-19.32h-9.032v-11.72zm-10.776 100.41 36.993-55.75h-36.993z"/><path d="m38.097 254.531c-6.625-14.471-7.334-39.192 12.375-42.533 14.833-1.913 20.875 4.991 22.083 15.587.583 3.096 2.333 3.288 2.875-.241.875-10.871 11.625-17.217 20.042-15.625 23.041 3.941 21.666 29.287 14.166 46.483-11.375 22.829-23.333 37.237-34.375 60.217-12.666-23.921-27.125-43.359-37.166-63.888z"/><path d="m188.273 115.958c29.75-1.975 45.292 23.446 48.292 43.488 1.833 3.179 2.791 2.283 3.5-.179 1.458-25.725 24.5-46.75 45.791-43.875 34.709.45 55.792 39.062 49.875 71.746-7.25 39.92-28.75 63.962-45.041 88.72-18.417 25.634-43.209 62.663-51.209 80.488 0 0-25.208-38.354-58-83.458-21.916-30.159-39.458-62.842-41.083-90.98-1.875-32.15 11.333-60.966 47.875-65.95z"/><path d="m644.648 115.958c29.75-1.975 45.292 23.446 48.333 43.488 1.792 3.179 2.792 2.283 3.459-.179 1.458-25.725 24.5-46.75 45.833-43.875 34.667.45 55.792 39.062 49.833 71.746-7.25 39.92-28.75 63.962-45.041 88.72-18.417 25.634-43.209 62.663-51.209 80.488 0 0-25.208-38.354-57.958-83.458-21.917-30.159-39.5-62.842-41.125-90.98-1.875-32.15 11.333-60.966 47.875-65.95z"/><path d="m188.273 1184.04c29.75 1.98 45.292-23.44 48.292-43.48 1.833-3.18 2.791-2.29 3.5.17 1.458 25.73 24.5 46.75 45.791 43.88 34.709-.45 55.792-39.06 49.875-71.74-7.25-39.93-28.75-63.97-45.041-88.72-18.417-25.642-43.209-62.671-51.209-80.492 0 0-25.208 38.35-58 83.452-21.916 30.17-39.458 62.85-41.083 90.99-1.875 32.14 11.333 60.96 47.875 65.94z"/><path d="m644.648 1184.04c29.75 1.98 45.292-23.44 48.333-43.48 1.792-3.18 2.792-2.29 3.459.17 1.458 25.73 24.5 46.75 45.833 43.88 34.667-.45 55.792-39.06 49.833-71.74-7.25-39.93-28.75-63.97-45.041-88.72-18.417-25.642-43.209-62.671-51.209-80.492 0 0-25.208 38.35-57.958 83.452-21.917 30.17-39.5 62.85-41.125 90.99-1.875 32.14 11.333 60.96 47.875 65.94z"/><path d="m818.18 1046.66c-6.625 14.47-7.333 39.2 12.375 42.54 14.833 1.91 20.875-4.99 22.083-15.59.584-3.1 2.334-3.29 2.875.24.875 10.87 11.625 17.22 20.042 15.63 23-3.94 21.667-29.29 14.167-46.49-11.375-22.83-23.375-37.24-34.375-60.213-12.667 23.923-27.125 43.353-37.167 63.883z"/></g></svg>

<?xml version="1.0" encoding="UTF-8" standalone="no"?>
<!DOCTYPE svg PUBLIC "-//W3C//DTD SVG 1.1//EN" "http://www.w3.org/Graphics/SVG/1.1/DTD/svg11.dtd">
<svg width="100%" height="100%" viewBox="0 0 934 1300" version="1.1" xmlns="http://www.w3.org/2000/svg" xmlns:xlink="http://www.w3.org/1999/xlink" xml:space="preserve" xmlns:serif="http://www.serif.com/" style="fill-rule:evenodd;clip-rule:evenodd;stroke-linejoin:round;stroke-miterlimit:2;">
    <g id="_4H" serif:id="4H">
        <g id="path7104">
            <path d="M75.92,193.621L75.92,181.905L86.695,181.905L86.695,162.587L32.843,162.587L32.843,148.951L91.111,61.041L100.632,61.079L100.632,148.951L117.102,148.951L117.102,162.587L100.632,162.587L100.318,181.905L109.35,181.905L109.35,193.621L75.92,193.621ZM86.695,93.217L49.702,148.951L86.695,148.951L86.695,93.217Z" style="fill:rgb(212,0,0);fill-rule:nonzero;"/>
        </g>
        <g id="path7159">
            <path d="M857.414,1106.39L857.414,1118.11L846.638,1118.11L846.638,1137.43L900.491,1137.43L900.491,1151.05L842.223,1238.96L832.702,1238.93L832.702,1151.05L816.231,1151.05L816.231,1137.43L832.702,1137.43L833.015,1118.11L823.983,1118.11L823.983,1106.39L857.414,1106.39ZM846.638,1206.8L883.631,1151.05L846.638,1151.05L846.638,1206.8Z" style="fill:rgb(212,0,0);fill-rule:nonzero;"/>
        </g>
        <g id="path8638">
            <path d="M38.097,254.531C31.472,240.06 30.763,215.339 50.472,211.998C65.305,210.085 71.347,216.989 72.555,227.585C73.138,230.681 74.888,230.873 75.43,227.344C76.305,216.473 87.055,210.127 95.472,211.719C118.513,215.66 117.138,241.006 109.638,258.202C98.263,281.031 86.305,295.439 75.263,318.419C62.597,294.498 48.138,275.06 38.097,254.531Z" style="fill:rgb(212,0,0);fill-rule:nonzero;"/>
        </g>
        <g id="path8520">
            <path d="M188.273,115.958C218.023,113.983 233.565,139.404 236.565,159.446C238.398,162.625 239.356,161.729 240.065,159.267C241.523,133.542 264.565,112.517 285.856,115.392C320.565,115.842 341.648,154.454 335.731,187.138C328.481,227.058 306.981,251.1 290.69,275.858C272.273,301.492 247.481,338.521 239.481,356.346C239.481,356.346 214.273,317.992 181.481,272.888C159.565,242.729 142.023,210.046 140.398,181.908C138.523,149.758 151.731,120.942 188.273,115.958Z" style="fill:rgb(212,0,0);fill-rule:nonzero;"/>
        </g>
        <g id="path8522">
            <path d="M644.648,115.958C674.398,113.983 689.94,139.404 692.981,159.446C694.773,162.625 695.773,161.729 696.44,159.267C697.898,133.542 720.94,112.517 742.273,115.392C776.94,115.842 798.065,154.454 792.106,187.138C784.856,227.058 763.356,251.1 747.065,275.858C728.648,301.492 703.856,338.521 695.856,356.346C695.856,356.346 670.648,317.992 637.898,272.888C615.981,242.729 598.398,210.046 596.773,181.908C594.898,149.758 608.106,120.942 644.648,115.958Z" style="fill:rgb(212,0,0);fill-rule:nonzero;"/>
        </g>
        <g id="path8584">
            <path d="M188.273,1184.04C218.023,1186.02 233.565,1160.6 236.565,1140.56C238.398,1137.38 239.356,1138.27 240.065,1140.73C241.523,1166.46 264.565,1187.48 285.856,1184.61C320.565,1184.16 341.648,1145.55 335.731,1112.87C328.481,1072.94 306.981,1048.9 290.69,1024.15C272.273,998.508 247.481,961.479 239.481,943.658C239.481,943.658 214.273,982.008 181.481,1027.11C159.565,1057.28 142.023,1089.96 140.398,1118.1C138.523,1150.24 151.731,1179.06 188.273,1184.04Z" style="fill:rgb(212,0,0);fill-rule:nonzero;"/>
        </g>
        <g id="path8586">
            <path d="M644.648,1184.04C674.398,1186.02 689.94,1160.6 692.981,1140.56C694.773,1137.38 695.773,1138.27 696.44,1140.73C697.898,1166.46 720.94,1187.48 742.273,1184.61C776.94,1184.16 798.065,1145.55 792.106,1112.87C784.856,1072.94 763.356,1048.9 747.065,1024.15C728.648,998.508 703.856,961.479 695.856,943.658C695.856,943.658 670.648,982.008 637.898,1027.11C615.981,1057.28 598.398,1089.96 596.773,1118.1C594.898,1150.24 608.106,1179.06 644.648,1184.04Z" style="fill:rgb(212,0,0);fill-rule:nonzero;"/>
        </g>
        <g id="path8654">
            <path d="M818.18,1046.66C811.555,1061.13 810.847,1085.86 830.555,1089.2C845.388,1091.11 851.43,1084.21 852.638,1073.61C853.222,1070.51 854.972,1070.32 855.513,1073.85C856.388,1084.72 867.138,1091.07 875.555,1089.48C898.555,1085.54 897.222,1060.19 889.722,1042.99C878.347,1020.16 866.347,1005.75 855.347,982.777C842.68,1006.7 828.222,1026.13 818.18,1046.66Z" style="fill:rgb(212,0,0);fill-rule:nonzero;"/>
        </g>
    </g>
</svg>
